svgs/files.svg

<svg width="192" height="192" viewBox="0 0 192 192" fill="none" xmlns="http://www.w3.org/2000/svg">
<path d="M80 38L84.2426 33.7574C83.1174 32.6321 81.5913 32 80 32V38ZM96 54L91.7574 58.2426C92.8826 59.3679 94.4087 60 96 60V54ZM154 148H38V160H154V148ZM28 138V54H16V138H28ZM38 44H80V32H38V44ZM75.7574 42.2426L91.7574 58.2426L100.243 49.7574L84.2426 33.7574L75.7574 42.2426ZM164 70V138H176V70H164ZM96 60H154V48H96V60ZM38 148C32.4772 148 28 143.523 28 138H16C16 150.15 25.8497 160 38 160V148ZM154 160C166.15 160 176 150.15 176 138H164C164 143.523 159.523 148 154 148V160ZM176 70C176 57.8497 166.15 48 154 48V60C159.523 60 164 64.4772 164 70H176ZM28 54C28 48.4772 32.4772 44 38 44V32C25.8497 32 16 41.8497 16 54H28Z" fill="black"/>
</svg>

<svg width="192" height="192" viewBox="0 0 192 192" fill="none" xmlns="http://www.w3.org/2000/svg"><path d="m80 38 4.243-4.243A6 6 0 0 0 80 32v6Zm16 16-4.243 4.243A6 6 0 0 0 96 60v-6Zm58 94H38v12h116v-12ZM28 138V54H16v84h12Zm10-94h42V32H38v12Zm37.757-1.757 16 16 8.486-8.486-16-16-8.486 8.486ZM164 70v68h12V70h-12ZM96 60h58V48H96v12Zm-58 88c-5.523 0-10-4.477-10-10H16c0 12.15 9.85 22 22 22v-12Zm116 12c12.15 0 22-9.85 22-22h-12c0 5.523-4.477 10-10 10v12Zm22-90c0-12.15-9.85-22-22-22v12c5.523 0 10 4.477 10 10h12ZM28 54c0-5.523 4.477-10 10-10V32c-12.15 0-22 9.85-22 22h12Z" fill="#000"/></svg>
